img/link-icon-klang-games.svg

<svg width="650" height="650" fill="none" xmlns="http://www.w3.org/2000/svg"><path fill="#fff" d="M0 0H650V650H0z"/><g clip-path="url(#clip0_250_15)"><path d="M394.959 552.33c-19.313-9.657-31.765-29.732-31.765-51.332v-95.549c0-12.96-7.369-24.903-19.059-30.748-11.943-6.099-26.174-6.099-38.117 0-11.69 5.845-19.059 17.788-19.059 30.748v95.549c0 21.6-12.452 41.675-31.765 51.332-19.821 9.911-43.709 9.911-63.53 0-19.313-9.657-31.765-29.732-31.765-51.332V149.806c0-21.854 12.452-41.675 31.765-51.586 19.821-9.91 43.709-9.91 63.53 0 19.313 9.911 31.765 29.732 31.765 51.586v78.777c0 11.689 12.197 19.313 22.616 13.976l30.749-15.501c13.976-6.861 22.616-21.346 22.616-36.847v-40.659c0-21.6 12.452-41.675 31.765-51.332 19.821-9.91 43.708-9.91 63.53 0 19.313 9.657 31.764 29.732 31.764 51.332v106.476c0 16.009-9.148 30.748-23.378 37.863-4.321 2.287-4.321 9.403 0 11.69 14.23 7.115 23.378 21.854 23.378 37.863v157.3c0 21.6-12.451 41.675-31.764 51.332-19.568 10.165-43.455 10.165-63.276.254z" fill="#000"/><path d="M464.842 358.692v135.191c0 6.607-6.861 10.673-12.706 7.878-7.878-3.812-12.706-11.944-12.706-20.584V368.349c0-15.502-8.894-29.732-22.616-36.848l-72.678-36.338c-11.944-5.845-26.175-5.845-38.118 0l-9.148 4.574c-4.575 2.287-9.911-1.017-9.911-6.099 0-6.861 3.812-13.214 9.911-16.264l67.595-33.798c7.115-3.557 15.501-3.557 22.363 0 4.574 2.288 4.574 8.895 0 11.182l-17.026 8.386c-9.403 4.574-9.403 18.042 0 22.616l71.915 35.831c14.231 7.115 23.125 21.6 23.125 37.101z" fill="#fff"/><path d="M464.842 144.217v101.139c0 12.96-7.37 24.903-19.059 30.748l-7.878 4.066c-7.115 3.558-15.501 3.558-22.362 0-4.574-2.287-4.574-8.894 0-11.181l6.353-3.05c10.673-5.336 17.534-16.517 17.534-28.461V131.511c0-6.607 6.861-10.673 12.706-7.878 7.878 3.812 12.706 11.689 12.706 20.584z" fill="#F29E2D"/><path d="M446.29 526.663c0 5.334-8.759 9.657-19.567 9.657-10.807 0-19.567-4.323-19.567-9.657s8.76-9.656 19.567-9.656c10.808 0 19.567 4.322 19.567 9.656z" fill="#000"/><path d="M414.018 385.627v95.548c0 8.64-4.828 16.772-12.706 20.584-5.844 2.795-12.706-1.271-12.706-7.878v-95.548c0-8.64 4.829-16.772 12.706-20.584 5.845-3.049 12.706 1.271 12.706 7.878z" fill="#F29E2D"/><path d="M414.018 131.508v82.843c0 6.607-6.861 10.673-12.706 7.878-7.877-3.812-12.706-11.944-12.706-20.584v-57.431c0-8.64 4.829-16.771 12.706-20.583 5.845-3.05 12.706 1.27 12.706 7.877zM387.08 345.224c4.574 2.287 4.574 8.895 0 11.182-7.115 3.557-15.501 3.557-22.362 0l-16.772-8.386c-6.099-3.05-9.911-9.403-9.911-16.264 0-5.082 5.337-8.386 9.911-6.099l39.134 19.567z" fill="#000"/><path d="M312.369 331.756c0 6.862-3.812 13.214-9.91 16.264l-18.043 9.148c-13.976 6.861-22.616 21.346-22.616 36.847v112.829c0 8.64-4.829 16.772-12.706 20.584-5.845 2.795-12.706-1.271-12.706-7.878V169.629c0-8.64 4.828-16.772 12.706-20.584 5.844-2.795 12.706 1.271 12.706 7.878v163.652c0 11.69 12.197 19.313 22.616 13.977l18.043-9.149c4.574-2.287 9.91 1.271 9.91 6.353z" fill="#F29E2D"/><path d="M237.151 117.024c5.59 2.795 5.59 10.927 0 13.723-8.64 4.32-19.059 4.32-27.699 0-5.591-2.796-5.591-10.928 0-13.723 8.894-4.32 19.059-4.32 27.699 0z" fill="#fff"/><path d="M210.723 169.629v349.667c0 6.607-6.861 10.673-12.706 7.877-7.877-3.811-12.705-11.943-12.705-20.583V156.923c0-6.607 6.861-10.673 12.705-7.878 7.878 3.812 12.706 11.69 12.706 20.584z" fill="#000"/></g><defs><clipPath id="clip0_250_15"><path fill="#fff" transform="translate(159.9 90.787)" d="M0 0H330.1V468.976H0z"/></clipPath></defs></svg>

<svg width="650" height="650" viewBox="0 0 650 650" fill="none" xmlns="http://www.w3.org/2000/svg">
<rect width="650" height="650" fill="white"/>
<g clip-path="url(#clip0_250_15)">
<path d="M394.959 552.33C375.646 542.673 363.194 522.598 363.194 500.998V405.449C363.194 392.489 355.825 380.546 344.135 374.701C332.192 368.602 317.961 368.602 306.018 374.701C294.328 380.546 286.959 392.489 286.959 405.449V500.998C286.959 522.598 274.507 542.673 255.194 552.33C235.373 562.241 211.485 562.241 191.664 552.33C172.351 542.673 159.899 522.598 159.899 500.998V149.806C159.899 127.952 172.351 108.131 191.664 98.2201C211.485 88.3095 235.373 88.3095 255.194 98.2201C274.507 108.131 286.959 127.952 286.959 149.806V228.583C286.959 240.272 299.156 247.896 309.575 242.559L340.324 227.058C354.3 220.197 362.94 205.712 362.94 190.211V149.552C362.94 127.952 375.392 107.877 394.705 98.2201C414.526 88.3095 438.413 88.3095 458.235 98.2201C477.548 107.877 489.999 127.952 489.999 149.552V256.028C489.999 272.037 480.851 286.776 466.621 293.891C462.3 296.178 462.3 303.294 466.621 305.581C480.851 312.696 489.999 327.435 489.999 343.444V500.744C489.999 522.344 477.548 542.419 458.235 552.076C438.667 562.241 414.78 562.241 394.959 552.33Z" fill="black"/>
<path d="M464.842 358.692V493.883C464.842 500.49 457.981 504.556 452.136 501.761C444.258 497.949 439.43 489.817 439.43 481.177V368.349C439.43 352.847 430.536 338.617 416.814 331.501L344.136 295.163C332.192 289.318 317.961 289.318 306.018 295.163L296.87 299.737C292.295 302.024 286.959 298.72 286.959 293.638C286.959 286.777 290.771 280.424 296.87 277.374L364.465 243.576C371.58 240.019 379.966 240.019 386.828 243.576C391.402 245.864 391.402 252.471 386.828 254.758L369.802 263.144C360.399 267.718 360.399 281.186 369.802 285.76L441.717 321.591C455.948 328.706 464.842 343.191 464.842 358.692Z" fill="white"/>
<path d="M464.842 144.217V245.356C464.842 258.316 457.472 270.259 445.783 276.104L437.905 280.17C430.79 283.728 422.404 283.728 415.543 280.17C410.969 277.883 410.969 271.276 415.543 268.989L421.896 265.939C432.569 260.603 439.43 249.422 439.43 237.478V131.511C439.43 124.904 446.291 120.838 452.136 123.633C460.014 127.445 464.842 135.322 464.842 144.217Z" fill="#F29E2D"/>
<path d="M446.29 526.663C446.29 531.997 437.531 536.32 426.723 536.32C415.916 536.32 407.156 531.997 407.156 526.663C407.156 521.329 415.916 517.007 426.723 517.007C437.531 517.007 446.29 521.329 446.29 526.663Z" fill="black"/>
<path d="M414.018 385.627V481.175C414.018 489.815 409.19 497.947 401.312 501.759C395.468 504.554 388.606 500.488 388.606 493.881V398.333C388.606 389.693 393.435 381.561 401.312 377.749C407.157 374.7 414.018 379.02 414.018 385.627Z" fill="#F29E2D"/>
<path d="M414.018 131.508V214.351C414.018 220.958 407.157 225.024 401.312 222.229C393.435 218.417 388.606 210.285 388.606 201.645V144.214C388.606 135.574 393.435 127.443 401.312 123.631C407.157 120.581 414.018 124.901 414.018 131.508Z" fill="black"/>
<path d="M387.08 345.224C391.654 347.511 391.654 354.119 387.08 356.406C379.965 359.963 371.579 359.963 364.718 356.406L347.946 348.02C341.847 344.97 338.035 338.617 338.035 331.756C338.035 326.674 343.372 323.37 347.946 325.657L387.08 345.224Z" fill="black"/>
<path d="M312.369 331.756C312.369 338.618 308.557 344.97 302.459 348.02L284.416 357.168C270.44 364.029 261.8 378.514 261.8 394.015V506.844C261.8 515.484 256.971 523.616 249.094 527.428C243.249 530.223 236.388 526.157 236.388 519.55V169.629C236.388 160.989 241.216 152.857 249.094 149.045C254.938 146.25 261.8 150.316 261.8 156.923V320.575C261.8 332.265 273.997 339.888 284.416 334.552L302.459 325.403C307.033 323.116 312.369 326.674 312.369 331.756Z" fill="#F29E2D"/>
<path d="M237.151 117.024C242.741 119.819 242.741 127.951 237.151 130.747C228.511 135.067 218.092 135.067 209.452 130.747C203.861 127.951 203.861 119.819 209.452 117.024C218.346 112.704 228.511 112.704 237.151 117.024Z" fill="white"/>
<path d="M210.723 169.629V519.296C210.723 525.903 203.862 529.969 198.017 527.173C190.14 523.362 185.312 515.23 185.312 506.59V156.923C185.312 150.316 192.173 146.25 198.017 149.045C205.895 152.857 210.723 160.735 210.723 169.629Z" fill="black"/>
</g>
<defs>
<clipPath id="clip0_250_15">
<rect width="330.1" height="468.976" fill="white" transform="translate(159.9 90.7871)"/>
</clipPath>
</defs>
</svg>
